X: 718
T: SADDLE THE PONY
M:6/8
L:1/8
B:O'NEILL'S 718
N:"2nd setting"  "collected by Early"
Z:Transcribed by A. LEE WORMAN
K:A
g |:fed cAA|eAA cBA|fed cAA|BGB dBG|
fed cAA|cAA efg|f<af gfe|dBG Bcd:|
||cee dff|cee ecA|cee dff|dBG Bcd|
cee dff|cAA efg|(f<a)f gfe|dBG Bcd:|


